images_elementary_svg/cmd/lc_unsetcellsreadonly.svg

<svg height="24" width="24" xmlns="http://www.w3.org/2000/svg" xmlns:xlink="http://www.w3.org/1999/xlink"><linearGradient id="a" gradientTransform="matrix(.2606375 0 0 .3148868 1.726764 -.048137)" gradientUnits="userSpaceOnUse" x1="10.650842" x2="27.192274" y1="2.913684" y2="17.470011"><stop offset="0" stop-color="#cad0c6"/><stop offset=".5" stop-color="#eaece9"/><stop offset="1" stop-color="#c5cbc0"/></linearGradient><radialGradient id="b" cx="16.823883" cy="11.368058" fx="16.777113" fy="11.597148" gradientTransform="matrix(0 .80952382 -1.1390521 0 20.94881 -6.369334)" gradientUnits="userSpaceOnUse" r="10.5"><stop offset="0" stop-color="#f2e0c4"/><stop offset=".76470584" stop-color="#e5af5b"/><stop offset="1" stop-color="#af6900"/></radialGradient><linearGradient id="c" gradientTransform="matrix(.47368427 0 0 .42857142 .421052 1.285714)" gradientUnits="userSpaceOnUse" x1="21.771429" x2="21.771429" y1="14.871428" y2="27.924538"><stop offset="0" stop-color="#fff"/><stop offset=".03252051" stop-color="#fff" stop-opacity=".235294"/><stop offset=".98558509" stop-color="#fff" stop-opacity=".156863"/><stop offset="1" stop-color="#fff" stop-opacity=".392157"/></linearGradient><linearGradient id="d" gradientUnits="userSpaceOnUse" x1="10.314445" x2="10.314445" y1="6" y2="15"><stop offset="0" stop-color="#b19c7d"/><stop offset="1" stop-color="#a08358"/></linearGradient><linearGradient id="e" gradientTransform="matrix(-.93357745 0 0 1 23.379997 -22)" gradientUnits="userSpaceOnUse" x1="8.642858" x2="23.299999" xlink:href="#f" y1="27.5" y2="27.5"/><linearGradient id="f"><stop offset="0" stop-color="#fff"/><stop offset="1" stop-color="#fff" stop-opacity="0"/></linearGradient><linearGradient id="g"><stop offset="0"/><stop offset="1" stop-opacity="0"/></linearGradient><linearGradient id="h" gradientTransform="matrix(-.93357748 0 0 1 23.379997 -15)" gradientUnits="userSpaceOnUse" x1="8.642858" x2="23.299999" xlink:href="#g" y1="27.5" y2="27.5"/><linearGradient id="i" gradientTransform="matrix(.66666664 0 0 .46667556 5.833335 -20.533589)" gradientUnits="userSpaceOnUse" x1="9" x2="9" xlink:href="#f" y1="29" y2="14"/><linearGradient id="j" gradientTransform="matrix(.66666664 0 0 .46667556 -1.166667 -20.533589)" gradientUnits="userSpaceOnUse" x1="9" x2="9" xlink:href="#f" y1="29" y2="14"/><linearGradient id="k" gradientTransform="matrix(.66666666 0 0 .46666666 -12.166666 .466666)" gradientUnits="userSpaceOnUse" x1="24" x2="24" xlink:href="#l" y1="29" y2="14"/><linearGradient id="l"><stop offset="0" stop-color="#d88f22"/><stop offset="1" stop-color="#d88f22" stop-opacity="0"/></linearGradient><linearGradient id="m" gradientTransform="matrix(.66666666 0 0 .46666666 -3.166667 .466666)" gradientUnits="userSpaceOnUse" x1="24" x2="24" xlink:href="#l" y1="29" y2="14"/><linearGradient id="n" gradientTransform="matrix(.44576989 0 0 .44993664 .801525 -.024539)" gradientUnits="userSpaceOnUse" x1="25.132275" x2="25.132275" y1="15.499894" y2="48.395687"><stop offset="0" stop-color="#fafafa"/><stop offset="1" stop-color="#e2e1de"/></linearGradient><linearGradient id="o" gradientTransform="matrix(.48483606 0 0 .5270602 -.165352 -.400235)" gradientUnits="userSpaceOnUse" x1="23.99999" x2="24.060406" xlink:href="#p" y1="4.999989" y2="40.60302"/><linearGradient id="p"><stop offset="0" stop-color="#fff"/><stop offset=".06316455" stop-color="#fff" stop-opacity=".235294"/><stop offset=".95056331" stop-color="#fff" stop-opacity=".156863"/><stop offset="1" stop-color="#fff" stop-opacity=".392157"/></linearGradient><linearGradient id="q" gradientTransform="matrix(.49999998 0 0 .25 -.999998 2.999819)" gradientUnits="userSpaceOnUse" x1="23.954144" x2="23.954144" xlink:href="#g" y1="15.999304" y2="19.963179"/><linearGradient id="r" gradientUnits="userSpaceOnUse" x1="8.295028" x2="8.295028" y1="-4.283906" y2="16.849756"><stop offset="0" stop-color="#cdf87e"/><stop offset=".26238" stop-color="#a2e34f"/><stop offset=".66093999" stop-color="#68b723"/><stop offset="1" stop-color="#1d7e0d"/></linearGradient><linearGradient id="s" gradientUnits="userSpaceOnUse" x1="11.001243" x2="11.001243" xlink:href="#p" y1="2.268861" y2="19.728326"/><rect fill="url(#n)" height="20" rx=".527778" ry=".555556" width="19" x="2.000001" y="1.999818"/><path d="m2.5 1.998774h17.938934v19.501226h-17.938934z" fill="none" stroke="url(#o)" stroke-linecap="round" stroke-linejoin="round" stroke-width="1.100222"/><path d="m1.000001 6.999818h21v1h-21z" fill="url(#q)" opacity=".15"/><path d="m1.5 6.163481v15.300155c0 .574146.462218 1.036364 1.036364 1.036364h17.927455c.574146 0 1.036364-.462218 1.036364-1.036364v-15.300155" fill="none" opacity=".3" stroke="#000"/><path d="m2.536364 1.499845c-.574145 0-1.036364.462218-1.036364 1.036364v3.963609h20.000182v-3.963609c0-.574146-.462218-1.036364-1.036363-1.036364z" fill="url(#r)"/><g fill="none"><path d="m2.536364 1.499845c-.574146 0-1.036364.462218-1.036364 1.036364l.000001 3.963609h20.000182l-.000001-3.963609c0-.574146-.462218-1.036364-1.036364-1.036364z" opacity=".4" stroke="#126400" stroke-linecap="round"/><path d="m17.500013 16.499818h-12.9999991zm-.0096-5.98755-12.9904261-.0093v7.99685h12.9999991zm.0096 3.98755h-13m13-2h-13m2.5453926-1.979205-.017614 7.979125m2.5487754-7.944393-.0034 7.944393m2.534768-7.972179.0037 7.972179m2.521631-7.999964.01314 7.999964" opacity=".2" stroke="#fff"/><path d="m2.500001 2.499818v3h18v-3z" opacity=".5" stroke="url(#s)" stroke-linecap="round" stroke-linejoin="round"/></g><path d="m6.000001 7h1v14.999818h-1z" opacity=".321"/><path d="m11.000001 7h1v14.999818h-1z" opacity=".321"/><path d="m16.000002 7h1v14.999818h-1z" opacity=".321"/><path d="m2.000001 9.999818h4v1h-4z" opacity=".321"/><path d="m7.000001 9.999818h4v1h-4z" opacity=".321"/><path d="m12.000001 9.999818h4v1h-4z" opacity=".321"/><path d="m17.000002 9.999818h4v1h-4z" opacity=".321"/><path d="m2.000001 13.999818h4v1h-4z" opacity=".321"/><path d="m7.000001 13.999818h4v1h-4z" opacity=".321"/><path d="m12.000001 13.999818h4v1h-4z" opacity=".321"/><path d="m17.000002 13.999818h4v1h-4z" opacity=".321"/><path d="m2.000001 17.999819h4v1h-4z" opacity=".321"/><path d="m7.000001 17.999819h4v1h-4z" opacity=".321"/><path d="m12.000001 17.999819h4v1h-4z" opacity=".321"/><path d="m17.000002 17.999819h4v1h-4z" opacity=".321"/><g fill="#126400"><path d="m6.000001 1.999818h1v4.000182h-1z" opacity=".4"/><path d="m11.000001 1.999818h1v4.000182h-1z" opacity=".4"/><path d="m16.000002 1.999818h1v4.000182h-1z" opacity=".4"/></g><path d="m7 11h4v3h-4z" fill="#fcaf3e"/><path d="m7 10c-.554 0-1 .446-1 1v3c0 .554.446 1 1 1h4c.554 0 1-.446 1-1v-3c0-.554-.446-1-1-1zm0 1h4v3h-4z" fill="#ce5c00"/><g transform="matrix(.78566571 0 0 .78566571 11.209407 11.215019)"><path d="m4.4999998 8.4996391v-3.3753574c0-2.4782011 1.3702785-3.6555186 3.4872865-3.62457 2.1285247.030949 3.5133857 1.1172142 3.5133857 3.62457v3.3753574h-1.431082v-2.7455829c0-.6297745.148159-2.6676754-2.0673917-2.6676754-2.1972832 0-2.0371829 2.0504603-2.0286629 2.6651649v2.7480934z" fill="url(#a)" fill-rule="evenodd" opacity=".4"/><path d="m5.2 6s-.5898303-3.5 2.8-3.5c3.38983 0 2.8 3.5 2.8 3.5" fill="none" opacity=".6" stroke="#fff" stroke-linecap="round"/><path d="m4.4999998 8.4996395v-3.3753574c0-2.4782011 1.3702785-3.6555186 3.4872865-3.62457 2.1285247.030949 3.5133857 1.1172142 3.5133857 3.62457v3.3753574h-2.000672v-2.7455829c0-.6297745.1514618-2.2540566-1.4978017-2.2540566s-1.5107183 1.6368415-1.5021983 2.2515461v2.7480934z" fill="none" opacity=".4" stroke="#000" stroke-linecap="square"/><rect fill="url(#b)" height="8" rx="1" width="11" x="2.5" y="6.5"/><g fill="none"><path d="m3.5 7.500001h9v6h-9z" opacity=".5" stroke="url(#c)" stroke-linejoin="round"/><rect height="8" rx="1" stroke="url(#d)" width="11" x="2.5" y="6.5"/><g stroke-linecap="square"><path d="m3.5 7.5 9-.000379m-9 2.0003788 9-.000379m-9 2.0003792 9-.000379" opacity=".2" stroke="url(#e)"/><path d="m3.5 12.5h9m-9-6h9m-9 2h9m-9 2h9" opacity=".05" stroke="url(#h)"/></g></g><rect fill="url(#i)" height="7.000133" opacity=".5" rx="2" ry="1" transform="scale(1 -1)" width="1" x="11" y="-14.000134"/><rect fill="url(#j)" height="7.000133" opacity=".5" rx="2" ry="1" transform="scale(1 -1)" width="1" x="4" y="-14.000134"/><rect fill="url(#k)" height="7" opacity=".5" rx="1.6" ry=".5" width="1" x="3" y="7"/><rect fill="url(#m)" height="7" opacity=".5" rx="1.6" ry=".5" width="1" x="12" y="7"/></g></svg>

<?xml version="1.0" encoding="UTF-8" standalone="no"?>
<svg
   xmlns:dc="http://purl.org/dc/elements/1.1/"
   xmlns:cc="http://creativecommons.org/ns#"
   xmlns:rdf="http://www.w3.org/1999/02/22-rdf-syntax-ns#"
   xmlns:svg="http://www.w3.org/2000/svg"
   xmlns="http://www.w3.org/2000/svg"
   xmlns:xlink="http://www.w3.org/1999/xlink"
   xmlns:sodipodi="http://sodipodi.sourceforge.net/DTD/sodipodi-0.dtd"
   xmlns:inkscape="http://www.inkscape.org/namespaces/inkscape"
   height="24"
   width="24"
   version="1.1"
   id="svg92"
   sodipodi:docname="lc_unsetcellsreadonly.svg"
   inkscape:export-filename="/home/rizmut/Documents/Rizmut/Github/libreoffice-style-elementary/images_elementary/cmd/lc_unsetcellsreadonly.png"
   inkscape:export-xdpi="96"
   inkscape:export-ydpi="96"
   inkscape:version="0.92.3 (2405546, 2018-03-11)">
  <metadata
     id="metadata98">
    <rdf:RDF>
      <cc:Work
         rdf:about="">
        <dc:format>image/svg+xml</dc:format>
        <dc:type
           rdf:resource="http://purl.org/dc/dcmitype/StillImage" />
        <dc:title></dc:title>
      </cc:Work>
    </rdf:RDF>
  </metadata>
  <defs
     id="defs96">
    <linearGradient
       id="s"
       gradientTransform="matrix(0.2606375,0,0,0.3148868,1.726764,-0.048137)"
       gradientUnits="userSpaceOnUse"
       x1="10.650842"
       x2="27.192274"
       y1="2.9136839"
       y2="17.470011">
      <stop
         offset="0"
         stop-color="#cad0c6"
         id="stop70" />
      <stop
         offset=".5"
         stop-color="#eaece9"
         id="stop72" />
      <stop
         offset="1"
         stop-color="#c5cbc0"
         id="stop74" />
    </linearGradient>
    <radialGradient
       id="r"
       cx="16.823883"
       cy="11.368058"
       fx="16.777113"
       fy="11.597148"
       gradientTransform="matrix(0,0.80952382,-1.1390521,0,20.94881,-6.369334)"
       gradientUnits="userSpaceOnUse"
       r="10.5">
      <stop
         offset="0"
         stop-color="#f2e0c4"
         id="stop63" />
      <stop
         offset=".76470584"
         stop-color="#e5af5b"
         id="stop65" />
      <stop
         offset="1"
         stop-color="#af6900"
         id="stop67" />
    </radialGradient>
    <linearGradient
       id="q"
       gradientTransform="matrix(0.47368427,0,0,0.42857142,0.421052,1.285714)"
       gradientUnits="userSpaceOnUse"
       x1="21.771429"
       x2="21.771429"
       y1="14.871428"
       y2="27.924538">
      <stop
         offset="0"
         stop-color="#fff"
         id="stop54" />
      <stop
         offset=".03252051"
         stop-color="#fff"
         stop-opacity=".235294"
         id="stop56" />
      <stop
         offset=".98558509"
         stop-color="#fff"
         stop-opacity=".156863"
         id="stop58" />
      <stop
         offset="1"
         stop-color="#fff"
         stop-opacity=".392157"
         id="stop60" />
    </linearGradient>
    <linearGradient
       id="p"
       gradientUnits="userSpaceOnUse"
       x1="10.314445"
       x2="10.314445"
       y1="6"
       y2="15">
      <stop
         offset="0"
         stop-color="#b19c7d"
         id="stop49" />
      <stop
         offset="1"
         stop-color="#a08358"
         id="stop51" />
    </linearGradient>
    <linearGradient
       id="o"
       gradientTransform="matrix(-0.93357745,0,0,1,23.379997,-22)"
       gradientUnits="userSpaceOnUse"
       x1="8.6428576"
       x2="23.299999"
       xlink:href="#l"
       y1="27.5"
       y2="27.5" />
    <linearGradient
       id="l">
      <stop
         offset="0"
         stop-color="#fff"
         id="stop41" />
      <stop
         offset="1"
         stop-color="#fff"
         stop-opacity="0"
         id="stop43" />
    </linearGradient>
    <linearGradient
       id="n"
       gradientTransform="matrix(-0.93357748,0,0,1,23.379997,-15)"
       gradientUnits="userSpaceOnUse"
       x1="8.6428576"
       x2="23.299999"
       xlink:href="#a-2"
       y1="27.5"
       y2="27.5" />
    <linearGradient
       id="a-2">
      <stop
         offset="0"
         id="stop2-9" />
      <stop
         offset="1"
         stop-opacity="0"
         id="stop4-1" />
    </linearGradient>
    <linearGradient
       id="m"
       gradientTransform="matrix(0.66666664,0,0,0.46667556,5.833335,-20.533589)"
       gradientUnits="userSpaceOnUse"
       x1="9"
       x2="9"
       xlink:href="#l"
       y1="29"
       y2="14" />
    <linearGradient
       id="k"
       gradientTransform="matrix(0.66666664,0,0,0.46667556,-1.166667,-20.533589)"
       gradientUnits="userSpaceOnUse"
       x1="9"
       x2="9"
       xlink:href="#l"
       y1="29"
       y2="14" />
    <linearGradient
       id="j"
       gradientTransform="matrix(0.66666666,0,0,0.46666666,-12.166666,0.466666)"
       gradientUnits="userSpaceOnUse"
       x1="24"
       x2="24"
       xlink:href="#i"
       y1="29"
       y2="14" />
    <linearGradient
       id="i">
      <stop
         offset="0"
         stop-color="#d88f22"
         id="stop34" />
      <stop
         offset="1"
         stop-color="#d88f22"
         stop-opacity="0"
         id="stop36" />
    </linearGradient>
    <linearGradient
       id="h"
       gradientTransform="matrix(0.66666666,0,0,0.46666666,-3.166667,0.466666)"
       gradientUnits="userSpaceOnUse"
       x1="24"
       x2="24"
       xlink:href="#i"
       y1="29"
       y2="14" />
  </defs>
  <sodipodi:namedview
     pagecolor="#ffffff"
     bordercolor="#666666"
     borderopacity="1"
     objecttolerance="10"
     gridtolerance="10"
     guidetolerance="10"
     inkscape:pageopacity="0"
     inkscape:pageshadow="2"
     inkscape:window-width="1366"
     inkscape:window-height="696"
     id="namedview94"
     showgrid="true"
     inkscape:zoom="13.906433"
     inkscape:cx="10.655578"
     inkscape:cy="7.7134716"
     inkscape:window-x="0"
     inkscape:window-y="0"
     inkscape:window-maximized="1"
     inkscape:current-layer="svg92">
    <inkscape:grid
       type="xygrid"
       id="grid905"
       spacingx="0.5"
       spacingy="0.5"
       empspacing="2" />
  </sodipodi:namedview>
  <linearGradient
     id="a"
     gradientTransform="matrix(.44576989 0 0 .44993664 .801525 -.024539)"
     gradientUnits="userSpaceOnUse"
     x1="25.132275"
     x2="25.132275"
     y1="15.499894"
     y2="48.395687">
    <stop
       offset="0"
       stop-color="#fafafa"
       id="stop2" />
    <stop
       offset="1"
       stop-color="#e2e1de"
       id="stop4" />
  </linearGradient>
  <linearGradient
     id="b"
     gradientTransform="matrix(.48483606 0 0 .5270602 -.165352 -.400235)"
     gradientUnits="userSpaceOnUse"
     x1="23.99999"
     x2="23.99999"
     xlink:href="#c"
     y1="4.999989"
     y2="43" />
  <linearGradient
     id="c">
    <stop
       offset="0"
       stop-color="#fff"
       id="stop8" />
    <stop
       offset=".06316455"
       stop-color="#fff"
       stop-opacity=".235294"
       id="stop10" />
    <stop
       offset=".95056331"
       stop-color="#fff"
       stop-opacity=".156863"
       id="stop12" />
    <stop
       offset="1"
       stop-color="#fff"
       stop-opacity=".392157"
       id="stop14" />
  </linearGradient>
  <linearGradient
     id="d"
     gradientTransform="matrix(.49999998 0 0 .25 -.999998 2.999819)"
     gradientUnits="userSpaceOnUse"
     x1="23.954144"
     x2="23.954144"
     y1="15.999304"
     y2="19.963179">
    <stop
       offset="0"
       id="stop17" />
    <stop
       offset="1"
       stop-opacity="0"
       id="stop19" />
  </linearGradient>
  <linearGradient
     id="e"
     gradientUnits="userSpaceOnUse"
     x1="8.295028"
     x2="8.295028"
     y1="-4.283906"
     y2="16.849756">
    <stop
       offset="0"
       stop-color="#cdf87e"
       id="stop22" />
    <stop
       offset=".26238"
       stop-color="#a2e34f"
       id="stop24" />
    <stop
       offset=".66093999"
       stop-color="#68b723"
       id="stop26" />
    <stop
       offset="1"
       stop-color="#1d7e0d"
       id="stop28" />
  </linearGradient>
  <linearGradient
     id="f"
     gradientUnits="userSpaceOnUse"
     x1="11.001243"
     x2="11.001243"
     xlink:href="#c"
     y1="2.268861"
     y2="19.728326" />
  <rect
     fill="url(#a)"
     height="20"
     rx=".527778"
     ry=".555556"
     width="19"
     x="2.000001"
     y="1.999818"
     id="rect32" />
  <path
     d="m2.50125 2.498592h17.938934v19.501226h-17.938934z"
     fill="none"
     stroke="url(#b)"
     stroke-linecap="round"
     stroke-linejoin="round"
     stroke-width="1.100222"
     id="path34" />
  <path
     d="m1.000001 6.999818h21v1h-21z"
     fill="url(#d)"
     opacity=".15"
     id="path36" />
  <path
     d="m1.5 6.163481v15.300155c0 .574146.462218 1.036364 1.036364 1.036364h17.927455c.574146 0 1.036364-.462218 1.036364-1.036364v-15.300155"
     fill="none"
     opacity=".3"
     stroke="#000"
     id="path38" />
  <path
     d="m2.536364 1.499845c-.574145 0-1.036364.462218-1.036364 1.036364v3.963609h20.000182v-3.963609c0-.574146-.462218-1.036364-1.036363-1.036364z"
     fill="url(#e)"
     id="path40" />
  <g
     fill="none"
     id="g48">
    <path
       d="m2.536364 1.499845c-.574146 0-1.036364.462218-1.036364 1.036364l.000001 3.963609h20.000182l-.000001-3.963609c0-.574146-.462218-1.036364-1.036364-1.036364z"
       opacity=".4"
       stroke="#126400"
       stroke-linecap="round"
       id="path42" />
    <path
       d="m17.500013 16.499818h-12.9999991zm-.0096-5.98755-12.9904261-.0093v7.99685h12.9999991zm.0096 3.98755h-13m13-2h-13m2.5453926-1.979205-.017614 7.979125m2.5487754-7.944393-.0034 7.944393m2.534768-7.972179.0037 7.972179m2.521631-7.999964.01314 7.999964"
       opacity=".2"
       stroke="#fff"
       id="path44" />
    <path
       d="m2.500001 2.499818v3h18v-3z"
       opacity=".5"
       stroke="url(#f)"
       stroke-linecap="round"
       stroke-linejoin="round"
       id="path46" />
  </g>
  <path
     d="m6.000001 7h1v14.999818h-1z"
     opacity=".321"
     id="path50" />
  <path
     d="m11.000001 7h1v14.999818h-1z"
     opacity=".321"
     id="path52" />
  <path
     d="m16.000002 7h1v14.999818h-1z"
     opacity=".321"
     id="path54" />
  <path
     d="m2.000001 9.999818h4v1h-4z"
     opacity=".321"
     id="path56" />
  <path
     d="m7.000001 9.999818h4v1h-4z"
     opacity=".321"
     id="path58" />
  <path
     d="m12.000001 9.999818h4v1h-4z"
     opacity=".321"
     id="path60" />
  <path
     d="m17.000002 9.999818h4v1h-4z"
     opacity=".321"
     id="path62" />
  <path
     d="m2.000001 13.999818h4v1h-4z"
     opacity=".321"
     id="path64" />
  <path
     d="m7.000001 13.999818h4v1h-4z"
     opacity=".321"
     id="path66" />
  <path
     d="m12.000001 13.999818h4v1h-4z"
     opacity=".321"
     id="path68" />
  <path
     d="m17.000002 13.999818h4v1h-4z"
     opacity=".321"
     id="path70" />
  <path
     d="m2.000001 17.999819h4v1h-4z"
     opacity=".321"
     id="path72" />
  <path
     d="m7.000001 17.999819h4v1h-4z"
     opacity=".321"
     id="path74" />
  <path
     d="m12.000001 17.999819h4v1h-4z"
     opacity=".321"
     id="path76" />
  <path
     d="m17.000002 17.999819h4v1h-4z"
     opacity=".321"
     id="path78" />
  <g
     fill="#126400"
     id="g86">
    <path
       d="m6.000001 1.999818h1v4.000182h-1z"
       opacity=".4"
       id="path80" />
    <path
       d="m11.000001 1.999818h1v4.000182h-1z"
       opacity=".4"
       id="path82" />
    <path
       d="m16.000002 1.999818h1v4.000182h-1z"
       opacity=".4"
       id="path84" />
  </g>
  <path
     d="m 7,11 h 4 v 3 H 7 Z"
     id="path88"
     inkscape:connector-curvature="0"
     style="fill:#fcaf3e"
     sodipodi:nodetypes="ccccc" />
  <path
     d="m 7,10 c -0.554,0 -1,0.446 -1,1 v 3 c 0,0.554 0.446,1 1,1 h 4 c 0.554,0 1,-0.446 1,-1 v -3 c 0,-0.554 -0.446,-1 -1,-1 z m 0,1 h 4 v 3 H 7 Z"
     id="path90"
     inkscape:connector-curvature="0"
     style="fill:#ce5c00"
     sodipodi:nodetypes="sssssssssccccc" />
  <g
     transform="matrix(0.78566571,0,0,0.78566571,11.209407,11.215019)"
     id="g165">
    <path
       style="opacity:0.4;fill:url(#s);fill-rule:evenodd"
       inkscape:connector-curvature="0"
       d="M 4.4999998,8.4996391 V 5.1242817 c 0,-2.4782011 1.3702785,-3.6555186 3.4872865,-3.62457 2.1285247,0.030949 3.5133857,1.1172142 3.5133857,3.62457 V 8.4996391 H 10.06959 V 5.7540562 c 0,-0.6297745 0.148159,-2.6676754 -2.0673917,-2.6676754 -2.1972832,0 -2.0371829,2.0504603 -2.0286629,2.6651649 v 2.7480934 z"
       id="path137" />
    <path
       style="opacity:0.6;fill:none;stroke:#ffffff;stroke-linecap:round"
       inkscape:connector-curvature="0"
       d="M 5.2,6 C 5.2,6 4.6101697,2.5 8,2.5 11.38983,2.5 10.8,6 10.8,6"
       id="path139" />
    <path
       style="opacity:0.4;fill:none;stroke:#000000;stroke-linecap:square"
       inkscape:connector-curvature="0"
       d="M 4.4999998,8.4996395 V 5.1242821 c 0,-2.4782011 1.3702785,-3.6555186 3.4872865,-3.62457 2.1285247,0.030949 3.5133857,1.1172142 3.5133857,3.62457 V 8.4996395 H 9.5 V 5.7540566 C 9.5,5.1242821 9.6514618,3.5 8.0021983,3.5 6.3529348,3.5 6.49148,5.1368415 6.5,5.7515461 v 2.7480934 z"
       id="path141" />
    <rect
       style="fill:url(#r)"
       height="8"
       rx="1"
       width="11"
       x="2.5"
       y="6.5"
       id="rect143" />
    <g
       style="fill:none"
       id="g155">
      <path
         style="opacity:0.5;stroke:url(#q);stroke-linejoin:round"
         inkscape:connector-curvature="0"
         d="m 3.5,7.500001 h 9 v 6 h -9 z"
         id="path145" />
      <rect
         style="stroke:url(#p)"
         height="8"
         rx="1"
         width="11"
         x="2.5"
         y="6.5"
         id="rect147" />
      <g
         style="stroke-linecap:square"
         id="g153">
        <path
           style="opacity:0.2;stroke:url(#o)"
           inkscape:connector-curvature="0"
           d="m 3.5,7.5 9,-3.79e-4 m -9,2.0003788 9,-3.79e-4 M 3.5,11.5 l 9,-3.79e-4"
           id="path149" />
        <path
           style="opacity:0.05;stroke:url(#n)"
           inkscape:connector-curvature="0"
           d="m 3.5,12.5 h 9 m -9,-6 h 9 m -9,2 h 9 m -9,2 h 9"
           id="path151" />
      </g>
    </g>
    <rect
       style="opacity:0.5;fill:url(#m)"
       height="7.000133"
       rx="2"
       ry="1"
       transform="scale(1,-1)"
       width="1"
       x="11"
       y="-14.000134"
       id="rect157" />
    <rect
       style="opacity:0.5;fill:url(#k)"
       height="7.000133"
       rx="2"
       ry="1"
       transform="scale(1,-1)"
       width="1"
       x="4"
       y="-14.000134"
       id="rect159" />
    <rect
       style="opacity:0.5;fill:url(#j)"
       height="7"
       rx="1.6"
       ry="0.5"
       width="1"
       x="3"
       y="7"
       id="rect161" />
    <rect
       style="opacity:0.5;fill:url(#h)"
       height="7"
       rx="1.6"
       ry="0.5"
       width="1"
       x="12"
       y="7"
       id="rect163" />
  </g>
</svg>
